lib/healthicons/icons/solid/typography/1.svg

<svg fill="none" height="48" viewBox="0 0 48 48" width="48" xmlns="http://www.w3.org/2000/svg"><path clip-rule="evenodd" d="m27.7654 10.1523c.7473.3096 1.2346 1.0388 1.2346 1.8478v24c0 1.1045-.8954 2-2 2s-2-.8955-2-2v-19.1716l-1.5858 1.5858c-.781.781-2.0474.781-2.8284 0-.7811-.7811-.7811-2.0474 0-2.8285l5-5c.572-.572 1.4322-.74306 2.1796-.4335z" fill="#333" fill-rule="evenodd"/></svg>

<svg width="48" height="48" viewBox="0 0 48 48" fill="none" xmlns="http://www.w3.org/2000/svg">
<path fill-rule="evenodd" clip-rule="evenodd" d="M27.7654 10.1523C28.5127 10.4619 29 11.1911 29 12.0001L29 36.0001C29 37.1046 28.1046 38.0001 27 38.0001C25.8954 38.0001 25 37.1046 25 36.0001L25 16.8285L23.4142 18.4143C22.6332 19.1953 21.3668 19.1953 20.5858 18.4143C19.8047 17.6332 19.8047 16.3669 20.5858 15.5858L25.5858 10.5858C26.1578 10.0138 27.018 9.84274 27.7654 10.1523Z" fill="#333333"/>
</svg>
